icons/1_Primary/BitSkins.svg

<svg width="1024" height="1024" fill="none" xmlns="http://www.w3.org/2000/svg"><g clip-path="url(#a)"><path d="M512 1024c282.77 0 512-229.23 512-512S794.77 0 512 0 0 229.23 0 512s229.23 512 512 512Z" fill="#FF837D"/><path d="m298.94 294.54-60.311 104.54 213 368.92h120.74l215.58-373.31-57.792-100.15H298.94Zm367.2 29.1-54.024 93.634h-87.135l10.554-18.198h-263.23l43.516-75.389 350.319-.047Zm21.018 0h26.116l43.543 75.389h-113.2l43.541-75.389Zm-270.72 93.634h87.632l10.554 18.228h216.11l-43.561 75.389h-.452l-131.18 227.95h-87.073l-175.2-303.37h87.086l67.052 116.1 12.98-22.481h87.15l-56.554 97.886 21.002 36.429 87.662-152.53h-128.71l-54.498-93.601Z" fill="#F9F9F9"/></g><defs><clipPath id="a"><path fill="#fff" d="M0 0h1024v1024H0z"/></clipPath></defs></svg>

<svg width="1024" height="1024" viewBox="0 0 1024 1024" fill="none" xmlns="http://www.w3.org/2000/svg">
<g clip-path="url(#clip0_2_1662)">
<path d="M512 1024C794.77 1024 1024 794.77 1024 512C1024 229.23 794.77 0 512 0C229.23 0 0 229.23 0 512C0 794.77 229.23 1024 512 1024Z" fill="#FF837D"/>
<path d="M298.94 294.54L238.629 399.08L451.629 768H572.369L787.949 394.69L730.157 294.54H298.94ZM666.14 323.64L612.116 417.274H524.981L535.535 399.076H272.305L315.821 323.687L666.14 323.64ZM687.158 323.64H713.274L756.817 399.029H643.617L687.158 323.64ZM416.438 417.274H504.07L514.624 435.502H730.734L687.173 510.891H686.721L555.541 738.841H468.468L293.268 435.471H380.354L447.406 551.571L460.386 529.09H547.536L490.982 626.976L511.984 663.405L599.646 510.875H470.936L416.438 417.274Z" fill="#F9F9F9"/>
</g>
<defs>
<clipPath id="clip0_2_1662">
<rect width="1024" height="1024" fill="white"/>
</clipPath>
</defs>
</svg>
